X:48
T:Covent Garden Rout. ThoH.048
Q:1/2=90
M:C|
L:1/8
B:Thompson's Compleat Collection of 120 Favourite Hornpipes.
Z:Village Music Project, Simon Wilson 2016
O:England.
K:G
G2B2-B2c2|(dB)gdb2ba|(bagf) (edcB)|(cAEC)A,4|
A2B2-B2c2|(cA)(fc)a2ag|(agfe) (dcBA)|(BGDB,)G,4|
G2B2-B2c2|(dB)(gd)b2ba|(bagf) (ed^cB)|(^ce)(GB) (AGFE)|
(FAdA) Bged|(^ce)(GB) (AGFE)|F(d^cd)E2c2|d2D2-D4:|
|:ag|(fa)(df) (eg)(^ce)|d2D2-D2ba|(gb)(eg) (fa)(^df)|e2E2-E3F|
(EFGA) (Bgfe)|(df)(Ac) (BAGF)|G(ede)F2^d2|e2E2-{F}E3e|
(gBba) (gfed)|{d/}TcBc2{d/}TcBc2|(cAag) (fedc)|{c}TBAB2{c}TBAB2|
(dBgf) (edcB)|(AGFE) (Dedc)|B2g2A2f2|g2G2-G2:|

